X: 20023
T: WHO TO GAIN THE LAUREL CROWN
O: Old English air.
%R: air, reel
B: W. Hamilton "Universal Tune-Book" Vol. 2 Glasgow 1846 p.2 #3 (and p.3 #1)
S: http://s3-eu-west-1.amazonaws.com/itma.dl.printmaterial/book_pdfs/hamiltonvol2web.pdf
Z: 2016 John Chambers <jc:trillian.mit.edu>
M: 2/4
L: 1/8
K: F
% - - - - - - - - - - - - - - - - - - - - - - - - -
|:\
FABd | cFBA | dcBA | GFc2 |\
cefa | gcfe | dc =Bc/d/ | G2=B2 |\
c4 :||: fcdB |\
gdfd | aefd | bfge | c'baf |\
cef2 | defB | c3[ecC] | [f4F4] :|
% - - - - - - - - - - - - - - - - - - - - - - - - -

%%sep 1 1 500
%%sep 1 1 500

